!!!COM: Corelli, Arcangelo
!!!OTL: 
!!!ONM: Opus 6, No. 1
!!!OMV: 1
!!!CDT: 1653/2/17/-1713/1/8/
!!!OCY: Italia
**kern	**kern	**kern	**kern	**kern	**kern	**kern
*clefC	*clefG	*clefG	*clefG	*clefC	*clefG	*clefG
*k[f#c#]	*k[f#c#]	*k[f#c#]	*k[f#c#]	*k[f#c#]	*k[f#c#]	*k[f#c#]
*D:	*D:	*D:	*D:	*D:	*D:	*D:
*M4/4	*M4/4	*M4/4	*M4/4	*M4/4	*M4/4	*M4/4
=1	=1	=1	=1	=1	=1	=1
4D	4a	4f#	4d	4D	4f#	4d
8r	8r	16r	16r	8r	16r	16r
.	.	16a	16f#	.	16a	16f#
8D	8a	16g	16e	8D	16g	16e
.	.	16f#	16d	.	16f#	16d
4C#	4a	4e	4a	4C#	4e	4a
8r	8r	8r	16r	8r	8r	16r
.	.	.	16a	.	.	16a
8C#	8a	8e	16b	8C#	8e	16b
.	.	.	16cc#	.	.	16cc#
=2	=2	=2	=2	=2	=2	=2
8BB	4b	8f#	4dd	8BB	8f#	4dd
8AA	.	8f#	.	8AA	8f#	.
8GG#	4e	4.b	16r	8GG#	4.b	16r
.	.	.	16dd	.	.	16dd
8EE	.	.	16ee	8EE	.	16ee
.	.	.	16b	.	.	16b
8AA	4e	.	8cc#	8AA	.	8cc#
8A	.	8e	8A	8A	8e	8A
8A	4r	4A	8r	8A	4A	8r
8G	.	.	8a	8G	.	8a
=3	=3	=3	=3	=3	=3	=3
8F#	4a	8r	8dd	8F#	8r	8dd
8E	.	8a	8d	8E	8a	8d
8F#	8r	4d	16r	8F#	4d	16r
.	.	.	16a	.	.	16a
8D	8a	.	16b	8D	.	16b
.	.	.	16cc	.	.	16cc
8G	8a	8r	8b	8G	8r	8b
8A	8g	8d	8G	8A	8d	8G
8B	4r	4G	8r	8B	4G	8r
8A	.	.	8b	8A	.	8b
=4	=4	=4	=4	=4	=4	=4
8G#	4b	8r	8ee	8G#	8r	8ee
8F#	.	8b	8e	8F#	8b	8e
8G#	8r	4e	16r	8G#	4e	16r
.	.	.	16b	.	.	16b
8E	8b	.	16cc#	8E	.	16cc#
.	.	.	16dd	.	.	16dd
8A	8b	8r	8cc#	8A	8r	8cc#
8B	8a	8e	8A	8B	8e	8A
8c#	4r	4A	8r	8c#	4A	8r
8B	.	.	8cc#	8B	.	8cc#
=5	=5	=5	=5	=5	=5	=5
8A#	4cc#	8r	8ff#	8A#	8r	8ff#
8G#	.	8cc#	8f#	8G#	8cc#	8f#
8A#	8r	4f#	16r	8A#	4f#	16r
.	.	.	16ee	.	.	16ee
8F#	8cc#	.	16ff#	8F#	.	16ff#
.	.	.	16cc#	.	.	16cc#
8B	8cc#	8r	8dd	8B	8r	8dd
8D	8b	8dd	8ff#	8D	8dd	8ff#
8E	8g	8.cc#	8.ee	8E	8.cc#	8.ee
8BB	16d	.	.	8BB	.	.
.	16e	16b	16dd	.	16b	16dd
=6	=6	=6	=6	=6	=6	=6
4F#	4f#	4b	4dd	4F#	4b	4dd
4FF#	4f#	4a#	4cc#	4FF#	4a#	4cc#
8BB	8d	8b	4b	8BB	8b	4b
8B	8B	8f#	.	8B	8f#	.
8B	4r	4B	8r	8B	4B	8r
8A	.	.	8b	8A	.	8b
=7	=7	=7	=7	=7	=7	=7
8G#	4b	8r	8ee	8G#	8r	8ee
8F#	.	8b	8e	8F#	8b	8e
8G#	8r	4e	16r	8G#	4e	16r
.	.	.	16b	.	.	16b
8E	8b	.	16cc#	8E	.	16cc#
.	.	.	16dd	.	.	16dd
8AA	8b	8r	8cc#	8AA	8r	8cc#
8A	8a	8e	8A	8A	8e	8A
8A	4r	4A	8r	8A	4A	8r
8G	.	.	8a	8G	.	8a
=8	=8	=8	=8	=8	=8	=8
8F#	4a	8r	8dd	8F#	8r	8dd
8E	.	8a	8d	8E	8a	8d
8F#	8r	4d	16r	8F#	4d	16r
.	.	.	16a	.	.	16a
8D	8a	.	16b	8D	.	16b
.	.	.	16cc	.	.	16cc
8GG	8a	8r	8b	8GG	8r	8b
8G	8g	8d	8G	8G	8d	8G
8G	4r	4G	8r	8G	4G	8r
16A	.	.	8b	16A	.	8b
16B	.	.	.	16B	.	.
=9	=9	=9	=9	=9	=9	=9
8C#	4e	8r	8a	8C#	8r	8a
8C#	.	8e	8A	8C#	8e	8A
8C#	8r	4A	16r	8C#	4A	16r
.	.	.	16e	.	.	16e
8C#	8e	.	16f#	8C#	.	16f#
.	.	.	16g	.	.	16g
8D	8e	8r	8f#	8D	8r	8f#
8D	8d	8a	8d	8D	8a	8d
8D	4r	8d	8r	8D	8d	8r
16E	.	8a	8f#	16E	8a	8f#
16F#	.	.	.	16F#	.	.
=10	=10	=10	=10	=10	=10	=10
8GG#	4B	4b	4e	8GG#	4b	4e
8GG#	.	.	.	8GG#	.	.
8GG#	8r	4b	4d	8GG#	4b	4d
8GG#	8B	.	.	8GG#	.	.
[2AA	4A	4e	4c#	[2AA	4e	4c#
.	4d	4f#	4d	.	4f#	4d
=11	=11	=11	=11	=11	=11	=11
2.AA]	4a	4e	4c#	2.AA]	4e	4c#
.	4d	4f#	4d	.	4f#	4d
.	4a	4e	4c#	.	4e	4c#
4r	4r	4r	4r	4r	4r	4r
=12	=12	=12	=12	=12	=12	=12
1r	1r	1r	1r	16A	4r	4a
.	.	.	.	16G	.	.
.	.	.	.	16A	.	.
.	.	.	.	16B	.	.
.	.	.	.	16A	4a	8r
.	.	.	.	16B	.	.
.	.	.	.	16A	.	8a
.	.	.	.	16G	.	.
.	.	.	.	16F#	8r	8dd
.	.	.	.	16d	.	.
.	.	.	.	16c#	8a	8d
.	.	.	.	16d	.	.
.	.	.	.	16F#	8dd	8r
.	.	.	.	16d	.	.
.	.	.	.	16c#	8d	8dd
.	.	.	.	16d	.	.
=13	=13	=13	=13	=13	=13	=13
1r	1r	1r	1r	16G	8r	8b
.	.	.	.	16B	.	.
.	.	.	.	16A	8dd	8G
.	.	.	.	16B	.	.
.	.	.	.	16G	8b	8r
.	.	.	.	16B	.	.
.	.	.	.	16A	8G	8b
.	.	.	.	16B	.	.
.	.	.	.	16G#	8r	8ee
.	.	.	.	16e	.	.
.	.	.	.	16d	8b	8e
.	.	.	.	16e	.	.
.	.	.	.	16G#	8ee	8r
.	.	.	.	16e	.	.
.	.	.	.	16d	8e	8ee
.	.	.	.	16e	.	.
=14	=14	=14	=14	=14	=14	=14
1r	1r	1r	1r	16A	8r	8cc#
.	.	.	.	16c#	.	.
.	.	.	.	16B	8ee	8A
.	.	.	.	16c#	.	.
.	.	.	.	16A	8cc#	8r
.	.	.	.	16c#	.	.
.	.	.	.	16B	8A	8cc#
.	.	.	.	16c#	.	.
.	.	.	.	16A#	8r	8ff#
.	.	.	.	16f#	.	.
.	.	.	.	16e	8cc#	8f#
.	.	.	.	16f#	.	.
.	.	.	.	16A#	8ff#	8r
.	.	.	.	16f#	.	.
.	.	.	.	16e	8f#	8ff#
.	.	.	.	16f#	.	.
=15	=15	=15	=15	=15	=15	=15
1r	1r	1r	1r	16B	8r	8dd
.	.	.	.	16d	.	.
.	.	.	.	16c#	8ff#	8B
.	.	.	.	16d	.	.
.	.	.	.	16B	8dd	8r
.	.	.	.	16d	.	.
.	.	.	.	16c#	8B	8dd
.	.	.	.	16B	.	.
.	.	.	.	16c#	8r	4ee
.	.	.	.	16B	.	.
.	.	.	.	16c#	8ee	.
.	.	.	.	16d	.	.
.	.	.	.	16c#	4a	8r
.	.	.	.	16d	.	.
.	.	.	.	16B	.	8ee
.	.	.	.	16c#	.	.
=16	=16	=16	=16	=16	=16	=16
8D	8d	8r	4ff#	16d	8r	4ff#
.	.	.	.	16c#	.	.
8D	8f#	8aa	.	16d	8aa	.
.	.	.	.	16e	.	.
8D	8d	4ff#	8r	16d	4ff#	8r
.	.	.	.	16e	.	.
8D	8f#	.	8ff#	16c#	.	8ff#
.	.	.	.	16d	.	.
8E	8B	8r	4gg	16e	8r	4gg
.	.	.	.	16d	.	.
8E	8b	8b	.	16e	8b	.
.	.	.	.	16f#	.	.
8E	8g	4ee	8r	16e	4ee	8r
.	.	.	.	16f#	.	.
16D	8b	.	8gg	16d	.	8gg
16E	.	.	.	16e	.	.
=17	=17	=17	=17	=17	=17	=17
8F#	8a	8r	4aa	16f#	8r	4aa
.	.	.	.	16e	.	.
8F#	8A	8a	.	16f#	8a	.
.	.	.	.	16g	.	.
8F#	8r	4dd	8r	16f#	4dd	8r
.	.	.	.	16g	.	.
8F#	8a	.	8aa	16e	.	8aa
.	.	.	.	16f#	.	.
8G	8a	8r	4bb	16g	8r	4bb
.	.	.	.	16f#	.	.
8G	8d	8b	.	16g	8b	.
.	.	.	.	16a	.	.
8G	8.g	8ee	8r	16g	8ee	8r
.	.	.	.	16a	.	.
16F#	.	8dd	8bb	16f#	8dd	8bb
16G	16g	.	.	16g	.	.
=18	=18	=18	=18	=18	=18	=18
4A	4g	4cc#	4ee	4a	4cc#	4ee
4D	8.f#	4dd	4ff#	4d	4dd	4ff#
.	16g	.	.	.	.	.
4A	4a	4cc#	4ee	4A	4cc#	4ee
4D	4a	4dd	4ff#	4D	4dd	4ff#
=19	=19	=19	=19	=19	=19	=19
4A	4a	4cc#	4ee	4A	4cc#	4ee
2r	2r	2r	2r	2r	2r	2r
8r	8r	8r	8r	8r	8r	8r
8AA#	8f#	8cc#	8ff#	8AA#	8cc#	8ff#
=20	=20	=20	=20	=20	=20	=20
4BB	4f#	8cc#	4dd	4BB	8cc#	4dd
.	.	8f#	.	.	8f#	.
8r	8r	2b	8r	8r	2b	8r
8BB	8b	.	8dd	8BB	.	8dd
4C#	4g#	.	4e#	4C#	.	4e#
4FF#	8a	8a	[4f#	4FF#	8a	[4f#
.	8b	8g#	.	.	8g#	.
=21	=21	=21	=21	=21	=21	=21
4C#	4.cc#	4a	4f#]	4C#	4a	4f#]
4CC#	.	4g#	4e#	4CC#	4g#	4e#
.	8c#	.	.	.	.	.
4FF#	4c#	4f#	4f#	16f#	4f#	4ff#
.	.	.	.	16e	.	.
.	.	.	.	16f#	.	.
.	.	.	.	16g	.	.
4r	4r	4r	4r	16f#	4ff#	8r
.	.	.	.	16g	.	.
.	.	.	.	16f#	.	8ff#
.	.	.	.	16e	.	.
=22	=22	=22	=22	=22	=22	=22
1r	1r	1r	1r	16d#	8r	8bb
.	.	.	.	16c#	.	.
.	.	.	.	16d#	8ff#	8b
.	.	.	.	16e	.	.
.	.	.	.	16d#	8bb	8r
.	.	.	.	16B	.	.
.	.	.	.	16c#	8b	8bb
.	.	.	.	16d#	.	.
.	.	.	.	16e	8r	8gg#
.	.	.	.	16d#	.	.
.	.	.	.	16e	8bb	8e
.	.	.	.	16f#	.	.
.	.	.	.	16e	8gg#	8r
.	.	.	.	16f#	.	.
.	.	.	.	16e	8e	8ee
.	.	.	.	16d	.	.
=23	=23	=23	=23	=23	=23	=23
1r	1r	1r	1r	16c#	8r	8aa
.	.	.	.	16B	.	.
.	.	.	.	16c#	8ee	8a
.	.	.	.	16d	.	.
.	.	.	.	16c#	8aa	8r
.	.	.	.	16A	.	.
.	.	.	.	16B	8a	8aa
.	.	.	.	16c#	.	.
.	.	.	.	16d	8r	8ff#
.	.	.	.	16c#	.	.
.	.	.	.	16d	8aa	8d
.	.	.	.	16e	.	.
.	.	.	.	16d	8ff#	8r
.	.	.	.	16c#	.	.
.	.	.	.	16B	8d	8ff#
.	.	.	.	16A	.	.
=24	=24	=24	=24	=24	=24	=24
2r	2r	2r	2r	16G#	8r	8ee
.	.	.	.	16F#	.	.
.	.	.	.	16G#	8b	8e
.	.	.	.	16A	.	.
.	.	.	.	16G#	8ee	8r
.	.	.	.	16E	.	.
.	.	.	.	16F#	8e	8ee
.	.	.	.	16G#	.	.
8A	8a	4ee	8cc#	16A	8r	8cc#
.	.	.	.	16G#	.	.
8A	8cc#	.	8a	16A	8ee	8a
.	.	.	.	16B	.	.
8A	8a	8r	4ff#	16A	8cc#	4ff#
.	.	.	.	16c#	.	.
8A	8cc#	8a	.	16B	8a	.
.	.	.	.	16A	.	.
=25	=25	=25	=25	=25	=25	=25
8G#	8b	4b	8r	16G#	4b	8r
.	.	.	.	16F#	.	.
8G#	8e	.	8b	16G#	.	8b
.	.	.	.	16A	.	.
8G#	8e	8r	4ee	16G#	8r	4ee
.	.	.	.	16c#	.	.
8B	8e	8ee	.	16B	8ee	.
.	.	.	.	16c#	.	.
8F#	8f#	4a	8r	16F#	4a	8r
.	.	.	.	16E	.	.
8F#	8d	.	8a	16F#	.	8a
.	.	.	.	16G#	.	.
8F#	8d	8r	4dd	16F#	8r	4dd
.	.	.	.	16B	.	.
8B	8d	8dd	.	16A	8dd	.
.	.	.	.	16B	.	.
=26	=26	=26	=26	=26	=26	=26
8E	8e	4g#	8r	16E	4g#	8r
.	.	.	.	16D	.	.
8E	8c#	.	8g#	16E	.	8g#
.	.	.	.	16F#	.	.
8E	8c#	8r	4cc#	16E	8r	4cc#
.	.	.	.	16A	.	.
8A	8c#	8cc#	.	16G#	8cc#	.
.	.	.	.	16A	.	.
8D	8d	4f#	8r	16D	4f#	8r
.	.	.	.	16C#	.	.
8D	8f#	.	8f#	16D	.	8f#
.	.	.	.	16E	.	.
8D	8f#	8r	8b	16D	8r	8b
.	.	.	.	16F#	.	.
8D	8f#	8ff#	8dd	16E	8ff#	8dd
.	.	.	.	16D	.	.
=27	=27	=27	=27	=27	=27	=27
4E	4e	4b	4g#	4E	4b	4g#
2r	2r	2r	2r	2r	2r	2r
8r	8r	8r	8r	8r	8r	8r
8C#	8a	8ee	8cc#	8C#	8ee	8cc#
=28	=28	=28	=28	=28	=28	=28
4D	4a	8a	8f#	4D	8a	8f#
.	.	8b	8g#	.	8b	8g#
4D#	4f#	4cc	2a	4D#	4cc	2a
4E	4B	2b	.	4E	2b	.
4EE	4e	.	4g#	4EE	.	4g#
=29	=29	=29	=29	=29	=29	=29
4AA	4e	4cc#	4a	16A	4cc#	4a
.	.	.	.	16G	.	.
.	.	.	.	16A	.	.
.	.	.	.	16B	.	.
2.r	2.r	2.r	2.r	16A	4a	8r
.	.	.	.	16B	.	.
.	.	.	.	16A	.	8a
.	.	.	.	16G	.	.
.	.	.	.	16F#	8r	8dd
.	.	.	.	16d	.	.
.	.	.	.	16c#	8a	8d
.	.	.	.	16d	.	.
.	.	.	.	16F#	8dd	8r
.	.	.	.	16d	.	.
.	.	.	.	16c#	8d	8dd
.	.	.	.	16d	.	.
=30	=30	=30	=30	=30	=30	=30
1r	1r	1r	1r	16G	8r	8b
.	.	.	.	16B	.	.
.	.	.	.	16A	8dd	8G
.	.	.	.	16B	.	.
.	.	.	.	16G	8b	8r
.	.	.	.	16B	.	.
.	.	.	.	16A	8G	8b
.	.	.	.	16B	.	.
.	.	.	.	16G#	8r	8ee
.	.	.	.	16e	.	.
.	.	.	.	16d	8b	8e
.	.	.	.	16e	.	.
.	.	.	.	16G#	8ee	8r
.	.	.	.	16e	.	.
.	.	.	.	16d	8e	8ee
.	.	.	.	16e	.	.
=31	=31	=31	=31	=31	=31	=31
1r	1r	1r	1r	16A	8r	8cc#
.	.	.	.	16c#	.	.
.	.	.	.	16B	8ee	8A
.	.	.	.	16c#	.	.
.	.	.	.	16A	8cc#	8r
.	.	.	.	16c#	.	.
.	.	.	.	16B	8A	8cc#
.	.	.	.	16c#	.	.
.	.	.	.	16A#	8r	8ff#
.	.	.	.	16f#	.	.
.	.	.	.	16e	8cc#	8f#
.	.	.	.	16f#	.	.
.	.	.	.	16A#	8ff#	8r
.	.	.	.	16f#	.	.
.	.	.	.	16e	8f#	8ff#
.	.	.	.	16f#	.	.
=32	=32	=32	=32	=32	=32	=32
1r	1r	1r	1r	16B	8r	8dd
.	.	.	.	16d	.	.
.	.	.	.	16c#	8ff#	8B
.	.	.	.	16d	.	.
.	.	.	.	16B	8dd	8r
.	.	.	.	16d	.	.
.	.	.	.	16c#	8B	8dd
.	.	.	.	16B	.	.
.	.	.	.	16c#	8r	4ee
.	.	.	.	16B	.	.
.	.	.	.	16c#	8ee	.
.	.	.	.	16d	.	.
.	.	.	.	16c#	4a	8r
.	.	.	.	16d	.	.
.	.	.	.	16B	.	8ee
.	.	.	.	16c#	.	.
=33	=33	=33	=33	=33	=33	=33
8D	8d	8r	4ff#	16d	8r	4ff#
.	.	.	.	16c#	.	.
8D	8f#	8aa	.	16d	8aa	.
.	.	.	.	16e	.	.
8D	8d	4ff#	8r	16d	4ff#	8r
.	.	.	.	16e	.	.
8D	8f#	.	8ff#	16c#	.	8ff#
.	.	.	.	16d	.	.
8E	8B	8r	4gg	16e	8r	4gg
.	.	.	.	16d	.	.
8E	8b	8b	.	16e	8b	.
.	.	.	.	16f#	.	.
8E	8g	4ee	8r	16e	4ee	8r
.	.	.	.	16f#	.	.
16D	8b	.	8gg	16d	.	8gg
16E	.	.	.	16e	.	.
=34	=34	=34	=34	=34	=34	=34
8F#	8a	8r	4aa	16f#	8r	4aa
.	.	.	.	16e	.	.
8F#	8A	8a	.	16f#	8a	.
.	.	.	.	16g	.	.
8F#	8r	4dd	8r	16f#	4dd	8r
.	.	.	.	16g	.	.
8F#	8a	.	8aa	16e	.	8aa
.	.	.	.	16f#	.	.
8G	8a	8r	4bb	16g	8r	4bb
.	.	.	.	16f#	.	.
8G	8d	8b	.	16g	8b	.
.	.	.	.	16a	.	.
8G	8.g	8ee	8r	16g	8ee	8r
.	.	.	.	16a	.	.
16F#	.	8dd	8bb	16f#	8dd	8bb
16G	16g	.	.	16g	.	.
=35	=35	=35	=35	=35	=35	=35
4A	4g	4cc#	4ee	4a	4cc#	4ee
4D	8.f#	4dd	4ff#	4d	4dd	4ff#
.	16g	.	.	.	.	.
4A	4a	4cc#	4ee	4A	4cc#	4ee
4D	4a	4dd	4ff#	4D	4dd	4ff#
=36	=36	=36	=36	=36	=36	=36
4A	4a	4cc#	4ee	4A	4cc#	4ee
2r	2r	2r	2r	2r	2r	2r
4G#	4b	[4dd	4ff	4G#	[4dd	4ff
=37	=37	=37	=37	=37	=37	=37
4A	4e	4dd]	2ee	4A	4dd]	2ee
4AA	4a	4cc#	.	4AA	4cc#	.
4D	4f#	4dd	4dd	4D	4dd	4dd
[4GG	4g	4d	4b	[4GG	4d	4b
=38	=38	=38	=38	=38	=38	=38
4GG]	4e	4c#	4a	4GG]	4c#	4a
8FF#	4d	2d	8a	8FF#	2d	8a
8GG	.	.	8b	8GG	.	8b
2AA	4a	.	4f#	2AA	.	4f#
.	4A	4c#	8.e	.	4c#	8.e
.	.	.	16a	.	.	16a
=39	=39	=39	=39	=39	=39	=39
1DD	1A	1d	1f#	1DD	1d	1f#
==	==	==	==	==	==	==
*-	*-	*-	*-	*-	*-	*-
!!!RWG: This file only contains pitch and duration data.
!!!RWG: Transposing instruments are not transposed.
!!!RWG: Durations of rests and tied notes may be interpreted.
!!!RWG: Key is interpreted using the Humdrum key tool.
!!!SCA: 
!!!YOR: Chrysander Edition
!!!AGN: concerto grosso
!!!AFT: stage1
!!!ENC: F. Bennion
!!!END: 1997/04/15
!!!AST: baroque
!!!YEC: Copyright 1994, Center for Computer Assisted Research in the Humanities
!!!YEM: Rights to all derivative electronic formats reserved.
!!!YEM: Refer to licensing agreement for further details.
!!!YEN: United States of America
!!!EED: W.B. Hewlett
!!!KEY: 697118732
!!!EMD: Converted from MuseData to Humdrum Aug 2, 1999, by Bret Aarden using muse2kern.
!!!VTS: 390673627
